X:528
T:Jenny Picking Cockles
R:reel
H:See also #3, #427, #774.
D:Altan: Blackwater
Z:id:hn-reel-528
M:C|
K:G
=fagf dc~c2|Bcde =fefa|g2=fg dc~c2|Ac=fc AG~G2|
g2g=f dc~c2|Bcde =fefa|g2=fg dc~c2|Ac=fc AG~G2||
dgga bgag|^fdde fdcA|dgga bgag|^fdcA AG~G2|
dgga b2ag|^f2ga fdga|bgag ^fdeg|^fdcA AG~G2||
